X:1
T:Title
%%score { 1 | ( 2 3 ) }
L:1/8
M:4/4
K:G
V:1 treble nm="Grand Piano"
V:2 bass 
V:3 bass 
V:1
 z4 z2[Q:1/4=100] [B,D]2 | [DB]2 [DB]2 [Ec]3 [^DG] | [DB]2 [DB]4 [DB]2 | B3 A D2 A2 | %4
[M:3/4] [B,G]6 |[M:1/4] G2 |[M:4/4] G2 G2 [EF]2 [DG]2 | [Dd]2 [DB]2 [B,G]2 [B,E]2 | %8
 [CE]2 [CA]2 [^CA]3 [CB] |[M:3/4] [DA]6 |[M:1/4] [DA]2 |[M:4/4] [^DA]2 [DA]2 [DB]3 [DF] | %12
 A2 G2 G2 [=FG]2 | [EG]2 [EG]2 [Ec]2 [^Dc]2 |[M:3/4] [DB]6 |[M:1/4] B2 |[M:4/4] e2 d2 [Ec]2 [DA]2 | %17
 [Dd]2 [=FB]2 [G,EG]2 [Ec]2 | [DB]4 [CA]4 |[M:3/4] [B,G]6 |] %20
V:2
 z4 z2 [G,,G,]2 | [G,,G,]2 [G,,G,]2 [G,,G,]3 [G,,G,] | [G,,G,]2 [G,,G,]4 [G,,G,]2 | %3
 [D,F,C]3 [D,F,C] [D,A,C]2 [D,F,C]2 |[M:3/4] [G,,G,]6 |[M:1/4] [=F,G,B,]2 | %6
[M:4/4] [E,G,B,]2 [D,B,D]2 [C,C]2 [B,,G,]2 | [G,,B,]2 [B,,G,]2 [E,G,]2 [E,G,]2 | %8
 [A,,A,]2 [A,,E,]2 [A,,G,]3 [A,,G,] |[M:3/4] [D,F,]6 |[M:1/4] [C,F,]2 | %11
[M:4/4] [B,,F,]2 [B,,F,]2 [B,,F,]3 [B,,B,] | [E,B,E]2 [E,B,E]2 [E,B,E]2 [D,B,]2 | %13
 [C,C]2 [C,C]2 [C,G,]2 [C,G,]2 |[M:3/4] [G,,G,]6 |[M:1/4] [=F,G,D]2 | %16
[M:4/4] [E,^G,E]2 [^G,,B,E]2 [A,,A,]2 [C,F,]2 | G,4 z4 | [D,G,]4 [D,F,]4 |[M:3/4] [G,,G,]6 |] %20
V:3
 x8 | x8 | x8 | x8 |[M:3/4] x6 |[M:1/4] x2 |[M:4/4] x8 | x8 | x8 |[M:3/4] x6 |[M:1/4] x2 | %11
[M:4/4] x8 | x8 | x8 |[M:3/4] x6 |[M:1/4] x2 |[M:4/4] x8 | B,,2 D,2 E,2 [C,G,]2 | x8 |[M:3/4] x6 |] %20

